X: 1
T: Johnny Loves Molly
M: 9/8
L: 1/8
R: slip jig
K: Dmaj
~f2f ged cAA|fef gec d2e|fef gec dfd|cAF ABc d2e:|
|:cAA BGA GDd|cAF ABc  ded|cAA BGA GDd|cAF ABc d2e:|
